public/avatar/item2/67.svg

<svg xmlns:xlink="http://www.w3.org/1999/xlink" height="99.2" width="82.2" xmlns="http://www.w3.org/2000/svg"><use height="99.2" transform="translate(40.7)" width="37.05" xlink:href="#a"/><defs><linearGradient gradientTransform="matrix(.0017 .0004 -.0011 .0038 1.15 -19.5)" gradientUnits="userSpaceOnUse" id="c" spreadMethod="pad" x1="-819.2" x2="819.2"><stop offset=".224" stop-color="#dfa63c"/><stop offset=".992" stop-color="#ffd75e"/></linearGradient><linearGradient gradientTransform="matrix(.0024 .0006 -.0011 .004 -2.05 -7.65)" gradientUnits="userSpaceOnUse" id="d" spreadMethod="pad" x1="-819.2" x2="819.2"><stop offset=".224" stop-color="#dfa63c"/><stop offset=".992" stop-color="#ffd75e"/></linearGradient><use height="99.2" width="37.05" xlink:href="#b" id="a"/><g id="b" fill-rule="evenodd"><path d="M8.5-39.15q.55-2.4 2.35-4.35l3.9-3.85 1.35-.75-3.35 3.15-1.95 2.35-1.7 2.5-.6.95m0-3.45q-.55.85-.75 1.8l-.25 1-1.35.35L8.5-42.6m-2.65 5.3.3.5-.85.3.55-.8m-.7 2.4.1.3-.05.05-.05-.35m-.9 2.85.45.6-1.25.7.8-1.3m-.8 2.7.55.8-.95.5v-.65l.4-.65M2.4-26.6q.6.8.35 1.3l-.25.25q-.4-.15-.35-.55l.25-1M3.65-25l-.6-2.25 1.25-.7q.3 1.05-.7 1.55l.05 1.4m1-3.9-.6-1.35.8-.25.2.85-.4.75m1.05-2.8-.75-1.55 1.35-.95-.45-1.4q1.2.05 1.75-.9l-.9-1.9.95-.15q.6.8.2 1.7-.45.95-1.35 1.55l.15 1.35-1.25 1 .3 1.25" fill="#ccc" transform="translate(18.5 49.6)"/><path d="m14.75-47.35-3.9 3.85q-1.8 1.95-2.35 4.35l-.25.45-.6.15-.95.15.9 1.9q-.55.95-1.75.9l.45 1.4-1.35.95.75 1.55-.2.7-.65.5-.8.25.6 1.35-.05.55-.3.4-1.25.7.6 2.25-1.15-.05.25-.25q.25-.5-.35-1.3l.65-1.45.95-.5-.55-.8-.2-.75.2-.65 1.25-.7-.45-.6q-.35-.2-.55-.55l-.25-.75.15-.55.15-.15.65-.45.8-.05.05-.05-.1-.3L5-36.15l.3-.35.85-.3-.3-.5-.2-.65q-.2-.95.5-1.5l1.35-.35.25-1q.2-.95.75-1.8l.75-1 6.1-4.75-.6 1M3.05-23.5h.1l.2.1.05.1-.2.05-.15-.05v-.2m-.35.7.05-.1q.45-.2.5.2v.05q-.5.2-.55-.15m-.15.35h.15l.2 1.1v.05l-1.75 4.55 1.4-5.7M.85-16l.25.05.25.45-.65-.1.15-.4M.2-11.55l-.75-.2.4-.35.2.1.15.45m-.65 1.05h.05l.2.1-.2 1.35L-2-4.2l-.05-.75Q-2.1-8-.45-10.5" fill="#fff" transform="translate(18.5 49.6)"/><path d="m8.5-39.15.6-.95 1.7-2.5 1.95-2.35 3.35-3.15-1.35.75.6-1-6.1 4.75-.75 1-2.35 3.15q-.7.55-.5 1.5l.2.65-.55.8-.3.35.15 1.25.05.35-.8.05-.65.45-.15.15 1.25-3.65q.65-1.7 1.6-3.3 2.65-4.25 7-6.7 1.9-1.05 3.45-1.5l1.65-.55-3.85 3.05-2.4 2.6q-3.4 4.2-5.05 8.9l-1.2 3.5L3.5-23.5l-2.45-.55L2.9-31.1l.55-2.25.25.75q.2.35.55.55l-.8 1.3-.2.65.2.75-.4.65v.65L2.4-26.6l-.25 1q-.05.4.35.55l1.15.05-.05-1.4q1-.5.7-1.55l.3-.4.05-.55.4-.75-.2-.85.65-.5.2-.7-.3-1.25 1.25-1-.15-1.35q.9-.6 1.35-1.55.4-.9-.2-1.7l.6-.15.25-.45" fill="#666" transform="translate(18.5 49.6)"/><path d="m1.05-24.05 2.45.55.75.4-.3 1.1-.45.05-.35.35-.05-.35-.05-.05-.35-.45h-.15l-1.6-.3-1.7 5.85 1.45.35q.45.55 1.45.85l-.35.7-.55-.15-.55-.2-.4-.05-1.5-.4q-1-.1-.45-.85l.3-.1 1.8-6.05-.3-.25-.1-.3.1-.7h.9M.4-12.1l.65.55.1.1-.95.2-.55-.15-.4-.15-1.5-.35-.5-.15-.2-.25.1-.25.4-.2h.4l1.55.4.35.1.55.15m-.3 1.3q.8.1.5 1.15L.15-7.9Q-.3-5.7-1.2-3.85L-1.75-4l-.2-.05q.7.15.9-.55l.8-2.7.6-2.8-.55-.3-.2-.1h-.05l-1.95-.75q-1.3 1.9-1.85 4-.25 1.05.1 1.95l.55.55 1.05.55-.2-.05-1.5-.4q-.65-.3-.45-1.15l1.6-5.3q.25-.65.75-.4l1.5.4.35.15.6.15M-2-3.1l.7.2q.2.15.1.3l-.4.25-.6.05-.6-.15-.4-.15-1.5-.4-.6-.15-.2-.25.2-.25.45-.1.4-.05 1.5.4.4.15.25.05h.05l.25.1m5.35-20.3-.2-.1h-.1L.6-23.95l2.45.65.15.05.95.25-.8-.4m-.65.6-2.25-.5 3.05 1.1.15-.05q.45-.5-.4-.45-.05-.4-.5-.2l-.05.1m-1.6 6.85L.85-16l-1.9-.3 1.75.7.65.1.6.05-.85-.5m-.9 4.4h.85l-1-.45-.2-.1-1.75-.2 1.35.55.75.2m-1.7 9L-2.05-3l-.4.15.95.3" fill="#765425" transform="translate(18.5 49.6)"/><path d="M3.05-23.5v.2L.6-23.95l2.45.45m.15.25.2-.05-.05-.1.8.4-.95-.25m.05.55q.85-.05.4.45l-.15.05-3.05-1.1 2.25.5q.05.35.55.15v-.05M.85-16l-.15.4-1.75-.7 1.9.3m.5.5-.25-.45.85.5-.6-.05M.05-12l1 .45H.2L.05-12m-.6.25-1.35-.55 1.75.2-.4.35m-.95 9.2-.95-.3.4-.15.55.45" fill="#ffd75e" transform="translate(18.5 49.6)"/><path d="m.3-15.4.4.05-.85 3.1-.35-.1.8-3.05m-1.05 3.85.4.15-.15.45-.35-.15.1-.45m-1.8 7.35.25.05-.25.9-.4-.15.2-.85.2.05m-.65 1.6.4.15-13.45 49.65-.55 1.2.15-1.3L-3.2-2.6" fill="#df0005" transform="translate(18.5 49.6)"/><path d="M1.25-15.15.4-12.1l-.55-.15.85-3.1.55.2M.2-11.25l-.1.45-.6-.15.15-.45.55.15M-1.75-4l-.25.9-.25-.1h-.05l-.25-.05.25-.9.35.1.2.05m-.45 1.7-13.85 51-.25.4q-1.1 1.1-2.1-.15l-.1-.9L-4.7-3l1.5.4-13.45 49.7-.15 1.3.55-1.2L-2.8-2.45l.6.15m-2.25-1.5.2-.85 1.5.4-.2.85-1.5-.4m2.1-7.7.1-.4 1.5.35-.1.45-1.5-.4m.3-1.25.85-3.05 1.5.4-.8 3.05-1.55-.4" fill="#7c0003" transform="translate(18.5 49.6)"/><path d="m3.15-21.6-.15 1-1.35 4.3-.95-.25-1.45-.35 1.7-5.85 1.6.3-1.4 5.7L2.9-21.3v-.05l-.2-1.1.35.45.05.05.05.35" fill="url(#c)" transform="translate(18.5 49.6)"/><path d="m-.2-10.4.55.3-.6 2.8-.8 2.7q-.2.7-.9.55l-.35-.1-.25-.05-1.05-.55-.55-.55q-.35-.9-.1-1.95.55-2.1 1.85-4l1.95.75Q-2.1-8-2.05-4.95l.05.75 1.6-4.85.2-1.35" fill="url(#d)" transform="translate(18.5 49.6)"/></g></defs></svg>

<?xml version="1.0" encoding="UTF-8" standalone="no"?>
<svg xmlns:xlink="http://www.w3.org/1999/xlink" height="99.2px" width="82.2px" xmlns="http://www.w3.org/2000/svg">
  <g transform="matrix(1.0, 0.0, 0.0, 1.0, 31.0, 46.75)">
    <use height="99.2" transform="matrix(1.0, 0.0, 0.0, 1.0, 9.7, -46.75)" width="37.05" xlink:href="#sprite0"/>
  </g>
  <defs>
    <g id="sprite0" transform="matrix(1.0, 0.0, 0.0, 1.0, 18.5, 49.6)">
      <use height="99.2" transform="matrix(1.0, 0.0, 0.0, 1.0, -18.5, -49.6)" width="37.05" xlink:href="#shape0"/>
    </g>
    <g id="shape0" transform="matrix(1.0, 0.0, 0.0, 1.0, 18.5, 49.6)">
      <path d="M8.5 -39.15 Q9.05 -41.55 10.85 -43.5 L14.75 -47.35 16.1 -48.1 12.75 -44.95 10.8 -42.6 9.1 -40.1 8.5 -39.15 M8.5 -42.6 Q7.95 -41.75 7.75 -40.8 L7.5 -39.8 6.15 -39.45 8.5 -42.6 M5.85 -37.3 L6.15 -36.8 5.3 -36.5 5.85 -37.3 M5.15 -34.9 L5.25 -34.6 5.2 -34.55 5.15 -34.9 M4.25 -32.05 L4.7 -31.45 3.45 -30.75 4.25 -32.05 M3.45 -29.35 L4.0 -28.55 3.05 -28.05 3.05 -28.7 3.45 -29.35 M2.4 -26.6 Q3.0 -25.8 2.75 -25.3 L2.5 -25.05 Q2.1 -25.2 2.15 -25.6 L2.4 -26.6 M3.65 -25.0 L3.05 -27.25 4.3 -27.95 Q4.6 -26.9 3.6 -26.4 L3.65 -25.0 M4.65 -28.9 L4.05 -30.25 4.85 -30.5 5.05 -29.65 4.65 -28.9 M5.7 -31.7 L4.95 -33.25 6.3 -34.2 5.85 -35.6 Q7.05 -35.55 7.6 -36.5 L6.7 -38.4 7.65 -38.55 Q8.25 -37.75 7.85 -36.85 7.4 -35.9 6.5 -35.3 L6.65 -33.95 5.4 -32.95 5.7 -31.7" fill="#cccccc" fill-rule="evenodd" stroke="none"/>
      <path d="M14.75 -47.35 L10.85 -43.5 Q9.05 -41.55 8.5 -39.15 L8.25 -38.7 7.65 -38.55 6.7 -38.4 7.6 -36.5 Q7.05 -35.55 5.85 -35.6 L6.3 -34.2 4.95 -33.25 5.7 -31.7 5.5 -31.0 4.85 -30.5 4.05 -30.25 4.65 -28.9 4.6 -28.35 4.3 -27.95 3.05 -27.25 3.65 -25.0 2.5 -25.05 2.75 -25.3 Q3.0 -25.8 2.4 -26.6 L3.05 -28.05 4.0 -28.55 3.45 -29.35 3.25 -30.1 3.45 -30.75 4.7 -31.45 4.25 -32.05 Q3.9 -32.25 3.7 -32.6 L3.45 -33.35 3.6 -33.9 3.75 -34.05 4.4 -34.5 5.2 -34.55 5.25 -34.6 5.15 -34.9 5.0 -36.15 5.3 -36.5 6.15 -36.8 5.85 -37.3 5.65 -37.95 Q5.45 -38.9 6.15 -39.45 L7.5 -39.8 7.75 -40.8 Q7.95 -41.75 8.5 -42.6 L9.25 -43.6 15.35 -48.35 14.75 -47.35 M3.05 -23.5 L3.15 -23.5 3.35 -23.4 3.4 -23.3 3.2 -23.25 3.05 -23.3 3.05 -23.5 M2.7 -22.8 L2.75 -22.9 Q3.2 -23.1 3.25 -22.7 L3.25 -22.65 Q2.75 -22.45 2.7 -22.8 M2.55 -22.45 L2.7 -22.45 2.9 -21.35 2.9 -21.3 1.15 -16.75 2.55 -22.45 M0.85 -16.0 L1.1 -15.95 1.35 -15.5 0.7 -15.6 0.85 -16.0 M0.2 -11.55 L-0.55 -11.75 -0.15 -12.1 0.05 -12.0 0.2 -11.55 M-0.45 -10.5 L-0.4 -10.5 -0.2 -10.4 -0.4 -9.05 -2.0 -4.2 -2.05 -4.95 Q-2.1 -8.0 -0.45 -10.5" fill="#ffffff" fill-rule="evenodd" stroke="none"/>
      <path d="M8.5 -39.15 L9.1 -40.1 10.8 -42.6 12.75 -44.95 16.1 -48.1 14.75 -47.35 15.35 -48.35 9.25 -43.6 8.5 -42.6 6.15 -39.45 Q5.45 -38.9 5.65 -37.95 L5.85 -37.3 5.3 -36.5 5.0 -36.15 5.15 -34.9 5.2 -34.55 4.4 -34.5 3.75 -34.05 3.6 -33.9 4.85 -37.55 Q5.5 -39.25 6.45 -40.85 9.1 -45.1 13.45 -47.55 15.35 -48.6 16.9 -49.05 L18.55 -49.6 14.7 -46.55 12.3 -43.95 Q8.9 -39.75 7.25 -35.05 L6.05 -31.55 3.5 -23.5 1.05 -24.05 2.9 -31.1 3.45 -33.35 3.7 -32.6 Q3.9 -32.25 4.25 -32.05 L3.45 -30.75 3.25 -30.1 3.45 -29.35 3.05 -28.7 3.05 -28.05 2.4 -26.6 2.15 -25.6 Q2.1 -25.2 2.5 -25.05 L3.65 -25.0 3.6 -26.4 Q4.6 -26.9 4.3 -27.95 L4.6 -28.35 4.65 -28.9 5.05 -29.65 4.85 -30.5 5.5 -31.0 5.7 -31.7 5.4 -32.95 6.65 -33.95 6.5 -35.3 Q7.4 -35.9 7.85 -36.85 8.25 -37.75 7.65 -38.55 L8.25 -38.7 8.5 -39.15" fill="#666666" fill-rule="evenodd" stroke="none"/>
      <path d="M1.05 -24.05 L3.5 -23.5 4.25 -23.1 3.95 -22.0 3.5 -21.95 3.15 -21.6 3.1 -21.95 3.05 -22.0 2.7 -22.45 2.55 -22.45 0.95 -22.75 -0.75 -16.9 0.7 -16.55 Q1.15 -16.0 2.15 -15.7 L1.8 -15.0 1.25 -15.15 0.7 -15.35 0.3 -15.4 -1.2 -15.8 Q-2.2 -15.9 -1.65 -16.65 L-1.35 -16.75 0.45 -22.8 0.15 -23.05 0.05 -23.35 0.15 -24.05 1.05 -24.05 M0.4 -12.1 L1.05 -11.55 1.15 -11.45 0.2 -11.25 -0.35 -11.4 -0.75 -11.55 -2.25 -11.9 -2.75 -12.05 -2.95 -12.3 -2.85 -12.55 -2.45 -12.75 -2.05 -12.75 -0.5 -12.35 -0.15 -12.25 0.4 -12.1 M0.1 -10.8 Q0.9 -10.7 0.6 -9.65 L0.15 -7.9 Q-0.3 -5.7 -1.2 -3.85 L-1.75 -4.0 -1.95 -4.05 Q-1.25 -3.9 -1.05 -4.6 L-0.25 -7.3 0.35 -10.1 -0.2 -10.4 -0.4 -10.5 -0.45 -10.5 -2.4 -11.25 Q-3.7 -9.35 -4.25 -7.25 -4.5 -6.2 -4.15 -5.3 L-3.6 -4.75 -2.55 -4.2 -2.75 -4.25 -4.25 -4.65 Q-4.9 -4.95 -4.7 -5.8 L-3.1 -11.1 Q-2.85 -11.75 -2.35 -11.5 L-0.85 -11.1 -0.5 -10.95 0.1 -10.8 M-2.0 -3.1 L-1.3 -2.9 Q-1.1 -2.75 -1.2 -2.6 L-1.6 -2.35 -2.2 -2.3 -2.8 -2.45 -3.2 -2.6 -4.7 -3.0 -5.3 -3.15 -5.5 -3.4 -5.3 -3.65 -4.85 -3.75 -4.45 -3.8 -2.95 -3.4 -2.55 -3.25 -2.3 -3.2 -2.25 -3.2 -2.0 -3.1 M3.35 -23.4 L3.15 -23.5 3.05 -23.5 0.6 -23.95 3.05 -23.3 3.2 -23.25 4.15 -23.0 3.35 -23.4 M2.7 -22.8 L0.45 -23.3 3.5 -22.2 3.65 -22.25 Q4.1 -22.75 3.25 -22.7 3.2 -23.1 2.75 -22.9 L2.7 -22.8 M1.1 -15.95 L0.85 -16.0 -1.05 -16.3 0.7 -15.6 1.35 -15.5 1.95 -15.45 1.1 -15.95 M0.2 -11.55 L1.05 -11.55 0.05 -12.0 -0.15 -12.1 -1.9 -12.3 -0.55 -11.75 0.2 -11.55 M-1.5 -2.55 L-2.05 -3.0 -2.45 -2.85 -1.5 -2.55" fill="#765425" fill-rule="evenodd" stroke="none"/>
      <path d="M3.05 -23.5 L3.05 -23.3 0.6 -23.95 3.05 -23.5 M3.2 -23.25 L3.4 -23.3 3.35 -23.4 4.15 -23.0 3.2 -23.25 M3.25 -22.7 Q4.1 -22.75 3.65 -22.25 L3.5 -22.2 0.45 -23.3 2.7 -22.8 Q2.75 -22.45 3.25 -22.65 L3.25 -22.7 M0.85 -16.0 L0.7 -15.6 -1.05 -16.3 0.85 -16.0 M1.35 -15.5 L1.1 -15.95 1.95 -15.45 1.35 -15.5 M0.05 -12.0 L1.05 -11.55 0.2 -11.55 0.05 -12.0 M-0.55 -11.75 L-1.9 -12.3 -0.15 -12.1 -0.55 -11.75 M-1.5 -2.55 L-2.45 -2.85 -2.05 -3.0 -1.5 -2.55" fill="#ffd75e" fill-rule="evenodd" stroke="none"/>
      <path d="M0.3 -15.4 L0.7 -15.35 -0.15 -12.25 -0.5 -12.35 0.3 -15.4 M-0.75 -11.55 L-0.35 -11.4 -0.5 -10.95 -0.85 -11.1 -0.75 -11.55 M-2.55 -4.2 L-2.3 -4.15 -2.55 -3.25 -2.95 -3.4 -2.75 -4.25 -2.55 -4.2 M-3.2 -2.6 L-2.8 -2.45 -16.25 47.2 -16.8 48.4 -16.65 47.1 -3.2 -2.6" fill="#df0005" fill-rule="evenodd" stroke="none"/>
      <path d="M1.25 -15.15 L0.4 -12.1 -0.15 -12.25 0.7 -15.35 1.25 -15.15 M0.2 -11.25 L0.1 -10.8 -0.5 -10.95 -0.35 -11.4 0.2 -11.25 M-1.75 -4.0 L-2.0 -3.1 -2.25 -3.2 -2.3 -3.2 -2.55 -3.25 -2.3 -4.15 -1.95 -4.05 -1.75 -4.0 M-2.2 -2.3 L-16.05 48.7 -16.3 49.1 Q-17.4 50.2 -18.4 48.95 L-18.5 48.05 -4.7 -3.0 -3.2 -2.6 -16.65 47.1 -16.8 48.4 -16.25 47.2 -2.8 -2.45 -2.2 -2.3 M-4.45 -3.8 L-4.25 -4.65 -2.75 -4.25 -2.95 -3.4 -4.45 -3.8 M-2.35 -11.5 L-2.25 -11.9 -0.75 -11.55 -0.85 -11.1 -2.35 -11.5 M-2.05 -12.75 L-1.2 -15.8 0.3 -15.4 -0.5 -12.35 -2.05 -12.75" fill="#7c0003" fill-rule="evenodd" stroke="none"/>
      <path d="M3.15 -21.6 L3.0 -20.6 1.65 -16.3 0.7 -16.55 -0.75 -16.9 0.95 -22.75 2.55 -22.45 1.15 -16.75 2.9 -21.3 2.9 -21.35 2.7 -22.45 3.05 -22.0 3.1 -21.95 3.15 -21.6" fill="url(#gradient0)" fill-rule="evenodd" stroke="none"/>
      <path d="M-0.2 -10.4 L0.35 -10.1 -0.25 -7.3 -1.05 -4.6 Q-1.25 -3.9 -1.95 -4.05 L-2.3 -4.15 -2.55 -4.2 -3.6 -4.75 -4.15 -5.3 Q-4.5 -6.2 -4.25 -7.25 -3.7 -9.35 -2.4 -11.25 L-0.45 -10.5 Q-2.1 -8.0 -2.05 -4.95 L-2.0 -4.2 -0.4 -9.05 -0.2 -10.4" fill="url(#gradient1)" fill-rule="evenodd" stroke="none"/>
    </g>
    <linearGradient gradientTransform="matrix(0.0017, 4.0E-4, -0.0011, 0.0038, 1.15, -19.5)" gradientUnits="userSpaceOnUse" id="gradient0" spreadMethod="pad" x1="-819.2" x2="819.2">
      <stop offset="0.2235294117647059" stop-color="#dfa63c"/>
      <stop offset="0.9921568627450981" stop-color="#ffd75e"/>
    </linearGradient>
    <linearGradient gradientTransform="matrix(0.0024, 6.0E-4, -0.0011, 0.004, -2.05, -7.65)" gradientUnits="userSpaceOnUse" id="gradient1" spreadMethod="pad" x1="-819.2" x2="819.2">
      <stop offset="0.2235294117647059" stop-color="#dfa63c"/>
      <stop offset="0.9921568627450981" stop-color="#ffd75e"/>
    </linearGradient>
  </defs>
</svg>
